T: Green Gates, The
M: 4/4
L: 1/8
K: Gmaj
||GBD'G' E'G'D'B | GBD'B E'G'D'G'||E'ACA E'ACA | BD'E'F' G'E'D'B||GBD'G' E'G'D'B | GBD'B E'G'D'G'|| CD'E'F' G'E'DC | BCAF G_ _ _||BC||D'_G'G' B'_G'G'| D'G'B'G' E'G'D'G'||E'ACA E'ACA | BD'E'F' G'E'D'B||D'_G'G' B'_G'G'| D'G'B'G' E'G'D'G'||CD'E'F' G'E'DC | BCAF G_ _ _||GBD'G' E'G'D'B | GBD'B E'G'D'G' | E'ACA E'ACA | BD'E'F' G'E'D'B ||GBD'G' E'G'D'B | GBD'B E'G'D'G' | CD'E'F' G'E'DC | BCAF G_ _BC ||D'_G'G' B'_G'G' | D'G'B'G' E'G'D'G' | E'ACA E'ACA | BD'E'F' G'E'D'B |D'_G'G' B'_G'G' | D'G'B'G' E'G'D'G' | CD'E'F' G'E'DC | BCAF G_ _ _ |||: GBdg egdB | GBdB egdg |[1 eAcA eAcA | Bdef gedB :|[2 cdef gedc | BcAF G2 Bc |||: d2 gg B2 gg | dgbg egdg |[1 eAcA eAcA | Bdef gedB |[2 cedf gedc | BcAF G4 |]
